X: 48
T: Benedictus dominus deus
N: Derived from Mar2010-Benedictus_dominus_deus_meus.krn
C: Johannes Martini
%%abc-version 2.0
%%abcx-abcm2ps-target-version 5.9.1 (29 Sep 2008)
%%abc-creator hum2abc beta
%%abcx-conversion-date 2019/02/17 07:19:41
%%abc-edited-by Jesse Rodin
%%abc-edited-by Chris Gage 12-04-2013
%%abcx-initial-encoding-date 2014/10/09/
%%humdrum-veritas 2545921415
%%humdrum-veritas-data 4009230960
%%linebreak <none>
%%barnumbers 0
L: 1/4
M: 4/2
Q: 1/2=120
%%staves {1 2}
V: 1 clef=treble
V: 2 clef=treble-8
K: C
[V:1] A4A2A2 | 
[V:2] A4c2c2 | 
[V:1] A4F4 | 
[V:2] c4A4 | 
[V:1] G2A4F2- | 
[V:2] B2c4A2 | 
[V:1] F2E2F4 ||  
[V:2] G4F4 ||  
[V:1]  [K:F] F4G4 | 
[V:2]  [K:F] F4B4 | 
[V:1] A4A2A2 | 
[V:2] A4c2c2 | 
[V:1] A2A2A4 | 
[V:2] c2c2A4 | 
[V:1] A4G2A2 | 
[V:2] c4B2c2 | 
[V:1] B2A4G2 | 
[V:2] d2A2B4 | 
[V:1] A4z4 | 
[V:2] A4z4 | 
[V:1] A2A2A2A2 | 
[V:2] c2c2c2c2 | 
[V:1] A4A2G2 | 
[V:2] c4c2B2 | 
[V:1] F2G4F2- | 
[V:2] A2B4A2 | 
[V:1] F2E2F4 ||  
[V:2] G4F4 ||  
[V:1]  [K:C] A4A2A2 | 
[V:2]  [K:C] A4c2c2 | 
[V:1] A4A4 | 
[V:2] c4c4 | 
[V:1] A2A2A4 | 
[V:2] c2c2c4 | 
[V:1] A2A2A4 | 
[V:2] c2c2c4 | 
[V:1] A4z4 | 
[V:2] c4z4 | 
[V:1] A4A2A2 | 
[V:2] A4c2c2 | 
[V:1] A2A2A4 | 
[V:2] c2c2c4 | 
[V:1] F3EF2G2- | 
[V:2] A3GA2_B2- | 
[V:1] G2F4E2 | 
[V:2] B2A2G4 | 
[V:1] F8 ||  
[V:2] F8 ||  
[V:1]  [K:F] F4G4 | 
[V:2]  [K:F] A4B4 | 
[V:1] A4A2A2 | 
[V:2] c4c2c2 | 
[V:1] A4A4 | 
[V:2] c4A4 | 
[V:1] A2A2A2G2 | 
[V:2] c2c2c2B2 | 
[V:1] A2B4A2- | 
[V:2] c2d4c2 | 
[V:1] A2G2A4 | 
[V:2] B4A4 | 
[V:1] z4A2A2 | 
[V:2] z4c2c2 | 
[V:1] A2A2A2A2 | 
[V:2] c2c2c2c2 | 
[V:1] A4A2G2 | 
[V:2] A4c2B2 | 
[V:1] F2G4F2- | 
[V:2] A2B4A2 | 
[V:1] F2E2F4 ||  
[V:2] G4F4 ||  
[V:1]  [K:C] A4A4 | 
[V:2]  [K:C] A4c4 | 
[V:1] A2A2A4 | 
[V:2] c2c2c4 | 
[V:1] A4G4 | 
[V:2] c4B4 | 
[V:1] A2_B4A2- | 
[V:2] c2d4c2 | 
[V:1] A2G2A4 | 
[V:2] _B4A4 | 
[V:1] z4A4 | 
[V:2] z4c4 | 
[V:1] A2A2A4 | 
[V:2] c2c2c4 | 
[V:1] A4F2G2 | 
[V:2] c4A2B2 | 
[V:1] A2_B4AG | 
[V:2] c2d4c_B | 
[V:1] F2G4F2- | 
[V:2] A2_B4A2 | 
[V:1] F2E2F4 ||  
[V:2] G4F4 ||  
[V:1]  [K:F] F4G4 | 
[V:2]  [K:F] A4B4 | 
[V:1] A4A2A2 | 
[V:2] c4c2c2 | 
[V:1] A2A2A4 | 
[V:2] c2c2c4 | 
[V:1] G2A2B2A2- | 
[V:2] B2c2d2A2 | 
[V:1] A2G2A4 | 
[V:2] B4A4 | 
[V:1] z4A2A2 | 
[V:2] z4c2c2 | 
[V:1] A4A2G2 | 
[V:2] c4c2B2 | 
[V:1] F2G4F2- | 
[V:2] A2B4A2 | 
[V:1] F2E2F4 ||  
[V:2] G4F4 ||  
[V:1]  [K:C] A2A2A4 | 
[V:2]  [K:C] c2c2c4 | 
[V:1] A4A2A2 | 
[V:2] c4c2c2 | 
[V:1] A2A2A4 | 
[V:2] c2c2c4 | 
[V:1] G2A2B2c2- | 
[V:2] B2c2d2e2- | 
[V:1] c2BAG2A2- | 
[V:2] e2dcB2c2 | 
[V:1] A2^G2A4 | 
[V:2] B4A4 | 
[V:1] z4A2A2 | 
[V:2] z4c2c2 | 
[V:1] A2A2A4 | 
[V:2] c2c2c4 | 
[V:1] A2A2A4 | 
[V:2] c2c2c4 | 
[V:1] G4A2_B2- | 
[V:2] B4c2d2- | 
[V:1] B2AGF2G2- | 
[V:2] d2c_BA2_B2- | 
[V:1] G2F4E2 | 
[V:2] B2A2G4 | 
[V:1] F8 ||  
[V:2] F8 ||  
[V:1]  [K:F] F4G4 | 
[V:2]  [K:F] A4B4 | 
[V:1] A4A2A2 | 
[V:2] c4c2c2 | 
[V:1] A4B2A2- | 
[V:2] c4d2c2- | 
[V:1] A2G4^F2 | 
[V:2] c2B2A4 | 
[V:1] G4z2A2 | 
[V:2] G4c4 | 
[V:1] A2A2A4 | 
[V:2] c2c2A4 | 
[V:1] A2A2A2A2 | 
[V:2] c2c2c2c2 | 
[V:1] A4G2A2 | 
[V:2] c4B2c2 | 
[V:1] B2A4G2 | 
[V:2] d2A2B4 | 
[V:1] A4z4 | 
[V:2] A4z4 | 
[V:1] A4A2A2 | 
[V:2] c4c2c2 | 
[V:1] A2A2A2A2 | 
[V:2] c2c2c2c2 | 
[V:1] A4G2F2- | 
[V:2] A4B2A2- | 
[V:1] FED2C2F2- | 
[V:2] AGF2E2F2 | 
[V:1] F2E2F4 ||  
[V:2] G4F4 ||  
[V:1]  [K:C] A2A2A2A2 | 
[V:2]  [K:C] A2A2c2c2 | 
[V:1] A2A2A4 | 
[V:2] c2c2A4 | 
[V:1] A2_B3AGF | 
[V:2] c2d3c_BA | 
[V:1] G4A4 | 
[V:2] _B4A4 | 
[V:1] z4A2A2 | 
[V:2] z4c2c2 | 
[V:1] A2A2A2A2 | 
[V:2] c2c2c2c2 | 
[V:1] A4G4 | 
[V:2] c4B4 | 
[V:1] A2_B4AG | 
[V:2] c2d4c_B | 
[V:1] F2G4F2- | 
[V:2] A2_B4A2 | 
[V:1] F2E2F4 ||  
[V:2] G4F4 ||  
[V:1]  [K:F] F4G4 | 
[V:2]  [K:F] A4B4 | 
[V:1] A2A2A2A2 | 
[V:2] c2c2c2c2 | 
[V:1] A4A2A2 | 
[V:2] A4c2c2 | 
[V:1] A2A2A4 | 
[V:2] c2c2A4 | 
[V:1] z4A2A2 | 
[V:2] z4c2c2 | 
[V:1] A2A2A4 | 
[V:2] c2c2c4 | 
[V:1] G2F2G4 | 
[V:2] B2A2B4 | 
[V:1] A2G4F2- | 
[V:2] c2B4A2 | 
[V:1] F2E2F4 ||  
[V:2] G4F4 ||  
[V:1]  [K:C] A4A4 | 
[V:2]  [K:C] A4c4 | 
[V:1] A4A2A2 | 
[V:2] c4c2c2 | 
[V:1] A2A2A4 | 
[V:2] c2c2A4 | 
[V:1] z2A2A2A2 | 
[V:2] z2c2c2c2 | 
[V:1] A2A2A4 | 
[V:2] c2c2c4 | 
[V:1] A4A2_B2- | 
[V:2] A4c2d2- | 
[V:1] B2A4G2 | 
[V:2] d2c2_B4 | 
[V:1] A4z4 | 
[V:2] A4z4 | 
[V:1] A4A2A2 | 
[V:2] c4c2c2 | 
[V:1] A4G4 | 
[V:2] c4B4 | 
[V:1] A2_B4AG | 
[V:2] c2d4c_B | 
[V:1] F2G4F2- | 
[V:2] A2_B4A2 | 
[V:1] F2E2F4 ||  
[V:2] G4F4 ||  
[V:1]  [K:F] A2A2A2A2 | 
[V:2]  [K:F] c2c2c2c2 | 
[V:1] A4A2A2 | 
[V:2] c4c2c2 | 
[V:1] A4A2A2 | 
[V:2] A4c2c2 | 
[V:1] A2G2A2B2- | 
[V:2] c2B2c2d2- | 
[V:1] B2A4G2 | 
[V:2] d2c2B4 | 
[V:1] A4z4 | 
[V:2] A4z4 | 
[V:1] A2A2A2A2 | 
[V:2] c2c2c2c2 | 
[V:1] A2A2A4 | 
[V:2] c2c2c4 | 
[V:1] A2G4^F2 | 
[V:2] c2B2A4 | 
[V:1] G4z2A2- | 
[V:2] G4c4 | 
[V:1] A2A2A2A2 | 
[V:2] c4c2c2 | 
[V:1] A2A2A4 | 
[V:2] c2c2A4 | 
[V:1] G2F2E2F2- | 
[V:2] B2A2G2A2- | 
[V:1] F2EDC2F2- | 
[V:2] A2GFE2F2 | 
[V:1] F2E2F4 ||  
[V:2] G4F4 ||  
[V:1]  [K:C] A2A2A2A2 | 
[V:2]  [K:C] c2c2c2c2 | 
[V:1] A4A2A2 | 
[V:2] A4c2c2 | 
[V:1] A2A2A4 | 
[V:2] c2c2c4 | 
[V:1] A2_B4A2- | 
[V:2] c2d4c2 | 
[V:1] A2G2A4 | 
[V:2] _B4A4 | 
[V:1] z4A4 | 
[V:2] z4A4 | 
[V:1] A2G2F2G2- | 
[V:2] c2B2A2_B2- | 
[V:1] G2F4E2 | 
[V:2] B2A2G4 | 
[V:1] F8 ||  
[V:2] F8 ||  
[V:1]  [K:F] A4A2A2 | 
[V:2]  [K:F] c4c2c2 | 
[V:1] A2A2A4 | 
[V:2] c2c2A4 | 
[V:1] A2B4A2- | 
[V:2] c2d4c2 | 
[V:1] A2G2A4 | 
[V:2] B4A4 | 
[V:1] z4A2A2 | 
[V:2] z4c2c2 | 
[V:1] A2A2A4 | 
[V:2] c2c2c4 | 
[V:1] G4F2E2 | 
[V:2] B4A2G2 | 
[V:1] F2G4F2- | 
[V:2] A2B4A2 | 
[V:1] F2E2F4 ||  
[V:2] G4F4 ||  
[V:1]  [K:C] A4A4 | 
[V:2]  [K:C] A4c4 | 
[V:1] A2A2A4 | 
[V:2] c2c2A4 | 
[V:1] A4A2_B2- | 
[V:2] c4c2d2- | 
[V:1] B2A4G2 | 
[V:2] d2c2_B4 | 
[V:1] A4z4 | 
[V:2] A4z4 | 
[V:1] A2A2A2A2 | 
[V:2] c2c2c2c2 | 
[V:1] A4G2E2 | 
[V:2] c4_B2G2 | 
[V:1] F2G4F2- | 
[V:2] A2_B4A2 | 
[V:1] F2E2F4 ||  
[V:2] G4F4 ||  
[V:1]  [K:F] A4A2A2 | 
[V:2]  [K:F] c4c2c2 | 
[V:1] A2A2A2A2 | 
[V:2] c2c2c2c2 | 
[V:1] A4A2A2 | 
[V:2] A4c2c2 | 
[V:1] A4A4 | 
[V:2] c4c4 | 
[V:1] A2A2A2B2- | 
[V:2] c2c2c2d2- | 
[V:1] B2A4G2 | 
[V:2] d2c2B4 | 
[V:1] A4z4 | 
[V:2] A4z4 | 
[V:1] A2A2A2G2- | 
[V:2] c2c2c2B2- | 
[V:1] G2F4E2 | 
[V:2] B2A2G4 | 
[V:1] F8 ||  
[V:2] F8 ||  
[V:1]  [K:C] A4A4 | 
[V:2]  [K:C] A4c4 | 
[V:1] A2A2A2A2 | 
[V:2] c2c2c2c2 | 
[V:1] A2A2A4 | 
[V:2] c2c2A4 | 
[V:1] A2_B4A2- | 
[V:2] c2d4c2 | 
[V:1] A2G2A4 | 
[V:2] _B4A4 | 
[V:1] z4A2A2 | 
[V:2] z4c2c2 | 
[V:1] A4A4 | 
[V:2] c4c4 | 
[V:1] G2E2F2G2- | 
[V:2] _B2G2A2_B2- | 
[V:1] G2F4E2 | 
[V:2] B2A2G4 | 
[V:1] F8 ||  
[V:2] F8 ||  
[V:1]  [K:F] A4A2A2 | 
[V:2]  [K:F] c4c2c2 | 
[V:1] A2A2A4 | 
[V:2] c2c2A4 | 
[V:1] A2A2A2A2 | 
[V:2] c2c2c2c2 | 
[V:1] A4A4 | 
[V:2] c4A4 | 
[V:1] z4A4 | 
[V:2] z4c4 | 
[V:1] A2A2A2A2 | 
[V:2] c2c2c2c2 | 
[V:1] A4G4 | 
[V:2] c4B4 | 
[V:1] F2G2A2A2 | 
[V:2] A2B2c2c2 | 
[V:1] A4A2G2- | 
[V:2] c4c2B2- | 
[V:1] G2F4E2 | 
[V:2] B2A2G4 | 
[V:1] F8 ||  
[V:2] F8 ||  
[V:1]  [K:C] A4A2A2 | 
[V:2]  [K:C] A4c2c2 | 
[V:1] A4A2_B2- | 
[V:2] c4c2d2- | 
[V:1] B2A4G2 | 
[V:2] d2c2_B4 | 
[V:1] A4z4 | 
[V:2] A4z4 | 
[V:1] A4A2A2 | 
[V:2] c4c2c2 | 
[V:1] A4A2G2- | 
[V:2] c4c2_B2- | 
[V:1] G2F4E2 | 
[V:2] B2A2G4 | 
[V:1] F8 ||  
[V:2] F8 ||  
[V:1]  [K:F] A2A2A2A2 | 
[V:2]  [K:F] c2c2c2c2 | 
[V:1] A2A2A2A2 | 
[V:2] c2c2c2c2 | 
[V:1] A4G4 | 
[V:2] A4B4 | 
[V:1] F2B4A2- | 
[V:2] A2d4c2 | 
[V:1] A2G2A4 | 
[V:2] B4A4 | 
[V:1] z4A2A2 | 
[V:2] z4c2c2 | 
[V:1] A2A2A4 | 
[V:2] c2c2c4 | 
[V:1] A2G2F2G2- | 
[V:2] c2B2A2B2- | 
[V:1] G2F4E2 | 
[V:2] B2A2G4 | 
[V:1] F8 |]  
[V:2] F8 |]  



